public/images/Oya - Horizontal.svg

<?xml version="1.0" encoding="UTF-8"?>
<svg width="151px" height="44px" viewBox="0 0 151 44" version="1.1" xmlns="http://www.w3.org/2000/svg" xmlns:xlink="http://www.w3.org/1999/xlink">
    <!-- Generator: Sketch 51.2 (57519) - http://www.bohemiancoding.com/sketch -->
    <title>Oya - Horizontal</title>
    <desc>Created with Sketch.</desc>
    <defs></defs>
    <g id="Landing-Page" stroke="none" stroke-width="1" fill="none" fill-rule="evenodd">
        <g id="1-1-Start---Oya" transform="translate(-378.000000, -61.000000)" fill="#FFFFFF">
            <g id="Oya---Horizontal" transform="translate(378.000000, 61.000000)">
                <path d="M108.346567,40 C108.108417,40 107.867013,39.93922 107.648384,39.8126982 C107.012666,39.4442968 106.809652,38.6547765 107.195508,38.0482165 L127.848214,5.61772367 C128.09222,5.23381709 128.52948,5 128.999924,5 C129.47102,5 129.907628,5.23381709 130.152286,5.61772367 L150.804341,38.0482165 C151.190197,38.6547765 150.987834,39.4442968 150.351465,39.8126982 C149.715747,40.1817199 148.886776,39.9875959 148.50027,39.3816561 L128.999924,8.76092003 L109.50023,39.3816561 C109.246463,39.7798274 108.802046,40 108.346567,40" id="A"></path>
                <path d="M97.519966,0.312293372 C96.9523015,-0.162650265 96.1056594,-0.0870469923 95.6312032,0.479008282 L73.5000562,26.8690738 L51.3682619,0.479008282 C50.8938057,-0.0870469923 50.0471636,-0.162650265 49.4801464,0.312293372 C48.912482,0.785944646 48.8373975,1.63050428 49.3125009,2.19785192 L72.1595395,29.4395851 L72.1595395,42.6617575 C72.1595395,43.4009895 72.759568,44 73.5000562,44 C74.2405444,44 74.8405729,43.4009895 74.8405729,42.6617575 L74.8405729,29.4395851 L97.6869642,2.19785192 C98.1627149,1.63050428 98.0876305,0.785944646 97.519966,0.312293372" id="Y"></path>
                <path d="M18,40 C8.07468228,40 0,32.1497546 0,22.4996876 C0,12.8502454 8.07468228,5 18,5 C27.9253177,5 36,12.8502454 36,22.4996876 C36,32.1497546 27.9253177,40 18,40 M18,7.58821954 C9.542339,7.58821954 2.66157361,14.2777332 2.66157361,22.4996876 C2.66157361,30.7222668 9.542339,37.4117805 18,37.4117805 C26.457661,37.4117805 33.3384264,30.7222668 33.3384264,22.4996876 C33.3384264,14.2777332 26.457661,7.58821954 18,7.58821954" id="O"></path>
            </g>
        </g>
    </g>
</svg>

<svg width="151" height="44" viewBox="0 0 151 44" xmlns="http://www.w3.org/2000/svg"><title>Oya - Horizontal</title><path d="M108.347 40c-.239 0-.48-.06-.699-.187-.635-.369-.838-1.158-.452-1.765l20.652-32.43A1.362 1.362 0 0 1 129 5c.471 0 .908.234 1.152.618l20.652 32.43c.386.607.184 1.396-.453 1.765-.635.369-1.464.175-1.85-.431L129 8.76l-19.5 30.62a1.363 1.363 0 0 1-1.153.619M97.52.312a1.343 1.343 0 0 0-1.889.167l-22.13 26.39L51.367.48A1.342 1.342 0 0 0 49.48.312a1.337 1.337 0 0 0-.167 1.886L72.16 29.44v13.222a1.339 1.339 0 0 0 2.68 0V29.44L97.688 2.198c.476-.567.4-1.412-.167-1.886M18 40C8.075 40 0 32.15 0 22.5S8.075 5 18 5s18 7.85 18 17.5S27.925 40 18 40m0-32.412c-8.458 0-15.338 6.69-15.338 14.912 0 8.222 6.88 14.912 15.338 14.912 8.458 0 15.338-6.69 15.338-14.912 0-8.222-6.88-14.912-15.338-14.912" fill="#FFF" fill-rule="evenodd"/></svg>
